!!!!SEGMENT: pl-cz--i-130_anonim--egregie-doctor-paule-sit-trinitati.krn
!!!cenid: 16xx:1479
!!!COM: Anonim
!!!COM-rismID: pe30004985
!!!CDT:
!!!CNT:
!!!OTL: [Egregie Doctor Paule] / Sit Trinitati
!!!PDT:
!!!AGN:
!!!SMS-siglum: PL-CZ
!!!SMS-shelfmark: I-130
!!!SMS-shelfwork: W
!!!SMS-variant:
!!!SMS-altvar:
!!!NIFC-rismSourceID: 1001010884
!!!NIFC-rismChildID: 1001010884
!!!NIFC-islandoraID: pl-cz:589
!!!URL-pdf-islandora: https://repozytorium.nifc.pl/islandora/object/pl-cz%3A589/datastream/PDF/view
!!!URL-scan: https://polish.musicsources.pl/pl/lokalizacje/galeria/rekopisy/531 @EN{Scan on Polish Music Sources Website} @PL{Skany w portalu Dziedzictwo Muzyki Polskiej w otwartym dostępie}
!!!ONB-nifc:
!!!AIN: 1 alto 1 bass 1 organ 1 soprn 1 tenor
!!!key:
**kern	**fba	**kern	**text	**kern	**text	**kern	**text	**kern	**text
*part5	*	*part4	*part4	*part3	*part3	*part2	*part2	*part1	*part1
*staff5	*	*staff4	*staff4	*staff3	*staff3	*staff2	*staff2	*staff1	*staff1
*I"Organo	*	*I"Basso	*	*I"Tenore	*	*I"Alto	*	*I"Canto	*
*I'org	*	*I'B	*	*I'T	*	*I'A	*	*I'S	*
*Iorgan	*	*Ibass	*	*Itenor	*	*Ialto	*	*Isoprn	*
*ICklav	*	*ICvox	*	*ICvox	*	*ICvox	*	*ICvox	*
*IGcont	*	*	*	*	*	*	*	*	*
*clefF4	*	*clefF4	*	*clefC4	*	*clefC3	*	*clefC1	*
*k[]	*	*k[]	*	*k[]	*	*k[]	*	*k[]	*
*G:	*	*G:	*	*G:	*	*G:	*	*G:	*
*M3/1	*	*M3/1	*	*M3/1	*	*M3/1	*	*M3/1	*
=1	=1	=1	=1	=1	=1	=1	=1	=1	=1
*all\right	*	*all\right	*	*all\right	*	*all\right	*	*all\right	*
!LO:TX:a:t=Organo In Commemoratione S. Pauli	!	!	!	!	!	!	!	!	!
!LO:TX:b:t=Sit trinitati	!	!	!	!	!	!	!	!	!
1G	.	1G	Sit	1d	Sit	1d	Sit	1g	Sit
1E	.	1E	Tri-	1d	Tri-	1e	Tri-	1g	Tri-
!	!	!	!	!	!	!LO:TX:b:t=P:problem=# below	!	!	!
1A	6	1A	-ni-	1e	-ni-	1f#X	-ni-	1a	-ni-
=2	=2	=2	=2	=2	=2	=2	=2	=2	=2
0G	.	0G	-ta-	0B	-ta-	0g	-ta-	0b	-ta-
!	!	!LO:TX:b:t=P:problem=# below	!	!	!	!	!	!	!
1F#X	6	1F#X	-ti	1d	-ti	1a	-ti	1a	-ti
=3	=3	=3	=3	=3	=3	=3	=3	=3	=3
1.G	.	1.G	Sem-	1.d	Sem-	1.g	Sem-	1.b	Sem-
*2\right	*	*	*	*	*	*	*	*2\right	*
2E\	.	2E\	-pi-	2e\	-pi-	2g\	-pi-	2cc\	-pi-
1B	.	1B	-ter-	1d	-ter-	1g	-ter-	1dd	-ter-
=4	=4	=4	=4	=4	=4	=4	=4	=4	=4
1G	.	1G	-na	1B	-na	1b	-na	1dd	-na
0A	4	1.A	Glo-	1.e	Glo-	1.e	Glo-	1.dd	glo-
.	3	.	.	.	.	.	.	.	.
!	!	!	!	!	!	!	!	!LO:TX:a:t=P:problem=# above	!
*	*below	*	*	*	*	*	*	*	*
.	#	2A\	-ri-	2e\	-ri-	2e\	-ri-	2cc#X\	-ri-
=5	=5	=5	=5	=5	=5	=5	=5	=5	=5
0.D	.	0.D	-a	0.d	-a	0.f#X	-a	0.dd	-a
=6	=6	=6	=6	=6	=6	=6	=6	=6	=6
*	*above	*	*	*	*	*	*	*	*
0.d	#	0.d	Ho-	0.f#X	Ho-	0.a	Ho-	0.dd	Ho-
=7	=7	=7	=7	=7	=7	=7	=7	=7	=7
0c	6	0c	-nor	0e	-nor	0a	-nor	0a	-nor
1B	6	1B	po-	1d	Po-	1g#X	po-	1b	po-
=8	=8	=8	=8	=8	=8	=8	=8	=8	=8
0A	.	0A	-tes-	0c	-tes-	0a	-tes-	0cc	-tes-
1A	.	1A	-tas	1c	-tas	1e	-tas	1a	-tas
!	!	!	!	!LO:LB:g=original	!	!LO:LB:g=original	!	!	!
=9	=9	=9	=9	=9	=9	=9	=9	=9	=9
1.G	.	1.G	at-	1.d	at-	1.g	at-	1.b	at-
2F\	.	2F\	-q(ue)	2d\	-que	2a\	-que	2a\	-que
1E	.	1E	Ju-	1e	Ju-	1g	Ju-	1b	Ju-
!LO:LB:g=original	!	!LO:LB:g=original	!	!	!	!	!	!LO:LB:g=original	!
=10	=10	=10	=10	=10	=10	=10	=10	=10	=10
1C	.	1C	-bi-	1e	-bi-	1g	-bi-	1cc	-bi-
*	*below	*	*	*	*	*	*	*	*
0D	#	1.D	-la-	1.d	-la-	1.g	-la-	1.a	-la-
!	!	!	!	!	!	!LO:TX:a:t=P:problem=3 above	!	!	!
.	.	2D/	-ti-	2d\	-ti-	2f#X\	-ti-	2a\	-ti-
=11	=11	=11	=11	=11	=11	=11	=11	=11	=11
(>0GG	.	0.GG	-o	0d	-o	0.g	-o	0b	-o
1GG)	.	.	.	1D	In	.	.	1g	In-
=12	=12	=12	=12	=12	=12	=12	=12	=12	=12
(>0GG	.	1r	.	1.G	V-	1r	.	1.b	V-
.	.	1r	.	.	.	1r	.	.	.
.	.	.	.	(2A/	-ni-	.	.	(2cc\	-ni-
1GG)	.	1GG	In	2G/	.	1d	In	2b\	.
.	.	.	.	2F/)	.	.	.	2a\)	.
=13	=13	=13	=13	=13	=13	=13	=13	=13	=13
1.C	.	1.C	V-	1E	-ta-	1.e	V-	1g	-ta-
.	.	.	.	1E	-te	.	.	1g	-te
2D/	.	(2D/	-ni-	.	.	(2f\	-ni-	.	.
2C/	.	2C/	.	1G	quae	2e\	.	1b	quae
2BB/	.	2BB/)	.	.	.	2d\)	.	.	.
=14	=14	=14	=14	=14	=14	=14	=14	=14	=14
0AA	.	1AA	-ta-	1.A	gu-	1c	-ta-	1.cc	gu-
.	.	1AA	-te	.	.	1e	-te	.	.
.	.	.	.	2B/	-ber-	.	.	2dd\	-ber-
1A	.	1A	quae	1c	-nat	1a	quae	1ee	-nat
=15	=15	=15	=15	=15	=15	=15	=15	=15	=15
1.F	.	1.F	gu-	1.c	O-	1.a	Gu-	(2cc\	O-
.	.	.	.	.	.	.	.	2b\)	.
.	.	.	.	.	.	.	.	2a\	.
2E\	.	2E\	-ber-	4d\	.	2g\	-ber-	4b\	.
*	*above	*	*	*	*	*	*	*	*
.	5	.	.	4e\	.	.	.	4cc\	.
1D	6	1D	-nat	1f	.	1f	-nat	1dd	.
!	!	!	!	!LO:LB:g=original	!	!	!	!	!
=16	=16	=16	=16	=16	=16	=16	=16	=16	=16
1E	6	1E	O-	1e	-mni-	1g	om-	0cc	-mni-
0G	4	1.G	.	(1.d	.	1.g	-ni-	.	.
.	3	.	.	.	.	.	.	1b	.
.	.	2G\	-mni-	2d\)	.	2f\	.	.	.
!	!	!	!	!	!	!LO:LB:g=original	!	!LO:LB:g=original	!
=17	=17	=17	=17	=17	=17	=17	=17	=17	=17
0.C	.	0.C	-a	0.c	-a	0.e	-a	0.cc	-a
!	!	!LO:LB:g=original	!	!	!	!	!	!	!
=18	=18	=18	=18	=18	=18	=18	=18	=18	=18
*	*below	*	*	*	*	*	*	*	*
1E	#	1E	Per	1G#X	per	1e	per	1b	Per
1E	.	1E	V-	1G#	V-	1e	V-	1b	V-
1AA	.	1A	-ni-	1A	-ni-	1e	-ni-	1cc	-ni-
=19	=19	=19	=19	=19	=19	=19	=19	=19	=19
0E	.	0E	-uer-	0G	-uer-	0e	-uer-	0b	-uer-
1E	.	1E	-sa	1G	-sa	1e	-sa	1b	-sa
=20	=20	=20	=20	=20	=20	=20	=20	=20	=20
1.AA	.	1.AA	Sae-	1.c	Sae-	1.a	Sae-	1.cc	Sae-
2BB/	.	2BB/	-cu-	2d\	-cu-	2g\	-cu-	(2b\	-cu-
1C	.	1C	-lo-	1e	-lo-	(2e\	-lo-	2g\	-lo-
!	!	!	!	!	!	!LO:TX:a:t=P:problem=♭ above	!	!	!
!	!	!	!	!	!	!LO:N:acc=-	!	!	!
.	.	.	.	.	.	2fn\)	-rum	2a\)	-rum
=21	=21	=21	=21	=21	=21	=21	=21	=21	=21
1GG	.	1GG	-rum	1d	-rum	1g	Sae-	2b\	Sae-
.	.	.	.	.	.	.	.	2cc\	.
*	*above	*	*	*	*	*	*	*	*
0D	4	1.D	Sae-	1.c	Sae-	1.g	-cu-	1.a	-cu-
.	3	.	.	.	.	.	.	.	.
*	*below	*	*	*	*	*	*	*	*
!	!	!	!	!	!	!LO:TX:a:t=P:problem=# above	!	!	!
.	#	2D/	-cu-	2d\	-cu-	2f#X\	.	2b\	.
=22	=22	=22	=22	=22	=22	=22	=22	=22	=22
0.GG	.	0.GG	-la.	0.d	-la.	0.g	-la.	0.g	-la.
==	==	==	==	==	==	==	==	==	==
*-	*-	*-	*-	*-	*-	*-	*-	*-	*-
!!!system-decoration: [(s1,s2,s3,s4)]s5
!!!RDF**kern: > = above
!!!ENC: Andrzej Gręziak
!!!END: 2021-10-26
!!!ENC: Marta Lawrence
!!!END: 2021-11-17
!!!YEC: Copyright 2022 Narodowy Instytut Fryderyka Chopina (https://polishscores.org)
!!!YEM: License CC-BY-4.0 (https://creativecommons.org/licenses/by/4.0)
